X:1
T:The Anchored Soul
T:The Anchored Soul
T:Robert Lowry
T:William Orcutt Cushing, 1876
T:Public Domain Courtesy of the Cyber Hymnal™
T:Public Domain Courtesy of the Cyber Hymnal™
C:Robert Lowry
Z:Public Domain
Z:Courtesy of the Cyber Hymnal™
%%score ( 1 2 ) ( 3 4 )
L:1/8
Q:1/4=87
M:6/8
K:G
V:1 treble 
V:2 treble 
V:3 bass 
V:4 bass 
V:1
 [B,D] | [DG]>[DG][DG] [DB][DA][DG] | ([EG][CE])[CG] [B,D]2 D | [DG]>[DG][DG] [Dd]2 [GB] | %4
w: 1.~I’m|rest- ing so sweet- ly in|Je- * sus now! I|sail the wide seas no|
w: 2.~O|long on the o- cean my|bark * was tossed, Where|tem- pests and storms ne’er|
w: 3.~How|sweet in a ha- ven of|rest * to hide! No|bil- lows of doubt or|
 [FA]3- [FA]2 [FA] | [GB]>[GB][GB] [GB]2 [GB]/[GB]/ | [Gc]2 [Gc]/[Gc]/ [Gc]2 [Gc]/[Gc]/ | %7
w: more; * The|tem- pests may sweep o’er the|wild, storm- y deep— I am|
w: cease; * My|heart was in fear, and no|ref- uge was near, Till in|
w: fear— * The|o- ceans may roll, but there’s|rest for the soul, When the|
 [GB][Gd]>G [FA][FB]>[FA] | G3- G2 ||"^Refrain" [GB]/[GB]/ | [Gd]>[Gd][Gd] [GB]2 [GB]/[GB]/ | %11
w: safe where the storms come no|more. *|||
w: Je- sus my soul found her|peace. *|I have|an- chored my soul in the|
w: voice of my Sav- ior is|near. *|||
 [Gd]>[Gd][Gd] [GB]2 [GB] | [GB]>[GB][GB] (cd)[Ge] | [Gd]2 (d/B/) [FA]2 (G/A/) | %14
w: |||
w: ha- ven of rest, I|sail the wild seas * no|more, no * more; The *|
w: |||
 [GB]>[GB][GB] [DG]2 [FA]/[GB]/ | [Ac]2 [GB]/[Ac]/ [FA]2 [GB]/[Gc]/ | %16
w: ||
w: tem- pests may sweep o’er the|wild, storm- y deep, But in|
w: ||
 [Gd]>[Ge][Gd] [GB]2 [FA]/[FB]/ | [EG]2 [EA]/[GB]/ [FA]2 [GB]/[GB]/ | %18
w: ||
w: Je- sus I’m safe ev- er-|more, ev- er- more, But in|
w: ||
 [Gc]>[Gd][Ge] !fermata![Gd]2 [FA]/[FB]/ | G3- G2 |] %20
w: ||
w: Je- sus I’m safe ev- er-|more. *|
w: ||
V:2
 x | x6 | x5 D | x6 | x6 | x6 | x6 | x5/2 G/ x3 | G3- G2 || x | x6 | x6 | x3 G2 x | %13
 x2 G x3/2 G x/ | x6 | x6 | x6 | x6 | x6 | G3- G2 |] %20
V:3
 G, | [G,B,]>[G,B,][G,B,] [G,D][G,C][G,B,] | (CG,)[E,G,] G,2 [G,B,] | %3
 [G,B,]>[G,B,][G,B,] [G,B,]2 [G,D] | [D,D]3- [D,D]2 [D,D] | [G,D]>[G,D][G,D] [G,D]2 [E,E]/[E,E]/ | %6
 [C,E]2 [E,E]/[E,E]/ [E,E]2 [C,E]/[C,E]/ | [G,D][G,B,]>[G,B,] [D,C][D,D]>[D,C] | %8
 [G,,B,]3- [G,,B,]2 || [G,D]/[G,D]/ | [G,B,]>[G,B,][G,B,] [G,D]2 [G,D]/[G,D]/ | %11
 [G,B,]>[G,B,][G,B,] [G,D]2 [G,D] | [G,D]>[G,D][=F,D] ([E,C][D,B,])[C,C] | %13
 [G,B,]2 (B,/D/) [D,D]2 (B,/C/) | [G,D]>[G,D][G,D] [G,B,]2 [D,D]/[D,D]/ | %15
 [D,D]2 [D,D]/[D,D]/ [D,D]2 G,/[G,A,]/ | [G,B,]>[G,C][G,B,] [G,D]2 [D,C]/[D,D]/ | %17
 [E,B,]2 [A,,^C]/[A,,C]/ [D,D]2 [G,D]/[G,D]/ | [E,C]>[D,B,][C,C] !fermata![D,B,]2 [D,C]/[D,D]/ | %19
 [G,,B,]3- [G,,B,]2 |] %20
V:4
 G, | x6 | C,2 G,2 x2 | x6 | x6 | x6 | x6 | x6 | x5 || x | x6 | x6 | x6 | x2 G, x3/2 G, x/ | x6 | %15
 x5 G,/ x/ | x6 | x6 | x6 | x5 |] %20

